X: 14764
T: Gan Ainm
R: polka
M: 2/4
K: Cmajor
DE F/F/F|AG e/e/e|dF A/A/A|GC E/E/E|
DE F/F/F|AG e/e/e|de/f/ a/g/B|dc c/B/c||
AF F/E/F|GE E/^D/E|FD D/^C/D|EC C/D/E/F/|
AF F/E/F|GE E/^D/E|FD/F/ AB,|DC C2||

